logos/lodash.svg

<?xml version="1.0" encoding="UTF-8" standalone="no" ?>
<svg width="256px" height="233px" viewBox="0 0 256 233" version="1.1" xmlns="http://www.w3.org/2000/svg" xmlns:xlink="http://www.w3.org/1999/xlink" preserveAspectRatio="xMidYMid">
    <g stroke="none" stroke-width="1" fill="none" fill-rule="evenodd">
        <path d="M0.387794202,0 L24.1799034,0 L24.1799034,157.893062 L118.266862,157.893062 L118.266862,177.359321 L0.387795376,177.359321 L0.387795376,3.33759524e-14 L0.387794202,0 Z" fill="#000000"></path>
        <path d="M183.154423,46.5027499 C199.376326,44.3398294 216.679652,47.5842079 229.657182,58.3988046 C243.716134,68.1319386 251.286375,85.4352863 252.367833,101.657173 C254.530749,121.123441 252.367833,140.589709 241.553219,156.811603 C231.820098,169.789116 216.679653,178.440797 199.376326,179.522255 C183.154423,181.68517 164.769603,178.440797 150.710651,167.6262 C137.733121,156.811603 131.244374,140.589709 129.081458,124.367823 C126.918542,107.06447 129.081458,87.5982021 139.896037,72.4577738 C148.547735,57.3173419 165.851061,47.5842079 183.154423,46.5027499 L183.154423,46.5027499 Z M186.398796,64.8875614 C197.213375,63.8060988 209.109448,67.0504772 217.76111,74.6206908 C225.33135,83.2723717 229.657182,94.086959 230.73864,104.901556 C231.820098,116.79761 230.73864,129.775122 225.33135,140.58971 C219.924061,151.404299 210.190904,158.97452 198.294869,161.137436 C187.480254,163.300352 175.584217,160.055978 168.013977,153.567231 C159.362313,147.078466 153.955025,137.345336 151.792073,127.612198 C149.629157,113.553227 150.710651,99.4942579 156.11794,86.5167454 C161.525229,74.6206908 173.421301,65.9690193 186.398795,64.8875614 L186.398796,64.8875614 Z" fill="#000000"></path>
        <path d="M0.387794202,205.47728 L255.612207,205.47728 L255.612207,232.513761 L0.387794202,232.513761 L0.387794202,205.47728 L0.387794202,205.47728 Z" fill="#3492FF"></path>
    </g>
</svg>

<svg preserveAspectRatio="xMidYMid" viewBox="0 0 256 233" xmlns="http://www.w3.org/2000/svg">
  <g fill="none" fill-rule="evenodd">
    <path fill="#000" d="M.388 0H24.18v157.893h94.087v19.466H.387V0Z"/>
    <path fill="#000" d="M183.154 46.503c16.222-2.163 33.526 1.081 46.503 11.896 14.06 9.733 21.63 27.036 22.71 43.258 2.164 19.466 0 38.933-10.814 55.155-9.733 12.977-24.873 21.629-42.177 22.71-16.222 2.163-34.606-1.081-48.665-11.896-12.978-10.814-19.467-27.036-21.63-43.258-2.162-17.304 0-36.77 10.815-51.91 8.652-15.14 25.955-24.874 43.258-25.955Zm3.245 18.385c10.814-1.082 22.71 2.162 31.362 9.733 7.57 8.651 11.896 19.466 12.978 30.28 1.081 11.897 0 24.874-5.408 35.689-5.407 10.814-15.14 18.385-27.036 20.547-10.815 2.163-22.71-1.081-30.281-7.57-8.652-6.489-14.059-16.222-16.222-25.955-2.163-14.059-1.081-28.118 4.326-41.095 5.407-11.896 17.303-20.548 30.28-21.63Z"/>
    <path fill="#3492FF" d="M.388 205.477h255.224v27.037H.388v-27.037Z"/>
  </g>
</svg>
